svg/white/grs.svg

<svg xmlns="http://www.w3.org/2000/svg" width="32" height="32" viewBox="0 0 32 32">
  <path fill="#FFF" fill-rule="evenodd" d="M10.6643203,28.1930888 C10.0548861,28.8326064 9.44915354,29.4803229 8.82306241,30.1074098 C8.75511249,30.1756462 8.53275495,30.1804069 8.44312451,30.1214274 C7.52540394,29.5205242 6.56537992,28.9666988 5.72248358,28.2719045 C3.41879608,26.3729234 1.79381463,23.9812123 0.833790611,21.1483452 C0.111194727,19.0163555 -0.130199361,16.8261798 0.0649253233,14.58443 C0.334609846,11.4881388 1.40911759,8.69758877 3.31621021,6.25351025 C5.97841948,2.84195643 9.46395975,0.783228239 13.7556452,0.168043016 C16.8416822,-0.274699917 19.8219606,0.158521663 22.6671323,1.45474814 C22.7440717,1.48992425 22.8199536,1.52774518 22.894249,1.56768197 C22.9098484,1.57588091 22.9183091,1.59836188 22.93761,1.62533905 C22.5357272,1.62533905 22.1359596,1.57958366 21.750205,1.63406696 C20.5667658,1.80042616 19.8616201,2.54388517 19.4814178,3.63355117 C19.405536,3.85069093 19.3619105,4.08184823 19.327539,4.31036071 C19.3145836,4.39340807 19.3706356,4.48677023 19.3949601,4.57563619 C19.4967528,4.52617805 19.6374118,4.5034326 19.6924063,4.42250109 C19.8404684,4.2058903 19.9290412,3.9482848 20.0810693,3.73564124 C20.8539005,2.65470315 22.3699506,2.52748729 23.25092,3.47618436 C23.8511003,4.12231398 23.9312124,4.90015566 23.7432265,5.72798444 C23.5020968,6.78961534 22.9196311,7.66981157 22.2319355,8.48044902 C21.6788179,9.13266172 21.0794308,9.74599557 20.4879756,10.3648835 C20.424256,10.4317975 20.2479035,10.4783463 20.1781028,10.438674 C18.9288289,9.72615942 17.587545,9.40851649 16.1526647,9.3759852 C14.2143733,9.3318167 12.4466177,9.77905583 10.9472246,11.0520079 C9.40790767,12.3590781 8.53804289,14.0144712 8.56157418,16.0573305 C8.58933582,18.4448098 9.6302652,20.2739676 11.7171475,21.4776254 C11.7808671,21.5143884 11.8445867,21.5508869 11.9077774,21.5884433 C11.9154449,21.593204 11.9183533,21.6058992 11.943471,21.6498032 C11.8689111,21.7177751 11.7850974,21.7894497 11.7060428,21.866414 C11.0564204,22.5009064 10.3753348,23.1073637 9.76828022,23.780206 C9.25482204,24.3496358 8.90555415,25.0288257 8.85558319,25.8262391 C8.82332681,26.3448883 8.98064278,26.7979461 9.3589943,27.1404503 C9.76378548,27.5064934 10.2085005,27.8286326 10.6643203,28.1930888 Z M25.3600381,28.9728348 C25.0292779,27.7604491 24.2741613,26.929711 23.2083786,26.3666288 C22.3800241,25.928382 21.4728794,25.7662545 20.5538368,25.7112423 C19.0369936,25.6202604 17.5167132,25.5869357 15.9990767,25.5036239 C14.925891,25.4446444 13.8553492,25.3425543 12.7834854,25.2600359 C12.7729095,25.2592425 12.7623337,25.258449 12.7520222,25.2560687 C11.6592711,25.0264983 11.3266602,24.3642352 11.9001364,23.4118354 C12.1780172,22.9500498 12.5862455,22.5607322 12.9720002,22.1748529 C13.0568715,22.0896897 13.3032891,22.1224855 13.4616626,22.1600419 C15.2571799,22.5885028 17.0513752,22.6109838 18.7987722,21.9936827 C20.9401202,21.2369996 22.4122805,19.7839353 22.9490055,17.5334576 C23.3130796,16.0076607 23.1211277,14.5138662 22.401969,13.1033835 C22.3601943,13.0211296 22.3194773,12.9386112 22.2512629,12.8026674 C22.7229464,12.8026674 23.1512689,12.8029319 23.5795914,12.8026674 C23.9494822,12.8026674 24.3199019,12.8116598 24.6895283,12.7963198 C24.7870906,12.7923526 24.9422914,12.7357534 24.9682023,12.6654012 C25.2735804,11.8357211 25.5593931,10.9986354 25.8502293,10.1634011 C25.8269624,10.1311343 25.8034311,10.0988675 25.7798998,10.0663362 C25.6561622,10.1181747 25.4824537,10.1351015 25.4176765,10.2279347 C25.0810996,10.7106145 24.5961963,10.8915202 24.0502173,10.9023639 C23.004,10.9235225 21.9569895,10.9092405 20.9102434,10.9079181 C20.8938508,10.9079181 20.8777226,10.8878174 20.8502254,10.8700971 C21.5350126,10.1351015 22.2190065,9.40433767 22.8990346,8.66987105 C23.6417246,7.86849047 24.3304777,7.02558622 24.8016325,6.03007582 C25.3573941,4.85524661 25.4708202,3.69972458 24.588,2.61058754 C24.5776885,2.5978924 24.5832409,2.57223765 24.5729294,2.46882517 C28.8265418,5.35776248 31.3615763,9.25437636 31.9049113,14.332696 C32.6153449,20.9741045 29.2374141,26.2618939 25.3600381,28.9728348 Z M19.5662891,16.6563294 C19.4481038,17.4135415 19.3939025,18.1879449 19.1974559,18.9242629 C18.8540047,20.2133483 18.0111084,21.079527 16.6724684,21.3024854 C15.2605906,21.5378744 14.125536,21.0155224 13.3125165,19.8213859 C12.6787579,18.8904092 12.3649191,17.8433248 12.2324565,16.743344 C12.0933838,15.5870285 12.0724965,14.4256879 12.343503,13.2796872 C12.6301089,12.0686239 13.2649251,11.1188689 14.4618485,10.6565543 C15.9205245,10.0929431 17.4408049,10.6605216 18.3500648,12.0683595 C18.9647869,13.0194369 19.2817984,14.0726043 19.400248,15.1892475 C19.451541,15.6713983 19.4711063,16.1569873 19.5052135,16.6409894 C19.525572,16.6462791 19.5459306,16.6510397 19.5662891,16.6563294 Z M23.7093573,30.0077794 C20.7734975,32.208799 13.2315847,32.7073476 10.185736,30.8906205 C10.3226934,30.6160881 10.4318892,30.3156365 10.607713,30.0614693 C10.9683499,29.5412331 11.3546333,29.0376593 11.7546654,28.5470451 C11.831076,28.4528895 12.0219703,28.4029024 12.1549618,28.4116303 C13.6813233,28.5116045 15.2058341,28.6409363 16.73246,28.7337695 C18.1020343,28.8168168 19.4753102,28.8403557 20.843827,28.9382141 C21.4601354,28.9821181 22.0743287,29.1151526 22.6776818,29.2590308 C23.1012451,29.3597984 23.4774814,29.5832858 23.7093573,30.0077794 Z"/>
</svg>

<svg xmlns="http://www.w3.org/2000/svg" width="32" height="32"><path fill="#FFF" fill-rule="evenodd" d="M10.664 28.193c-.61.64-1.215 1.287-1.84 1.914-.069.069-.291.073-.38.014-.919-.6-1.879-1.154-2.722-1.85-2.303-1.898-3.928-4.29-4.888-7.123-.723-2.132-.964-4.322-.77-6.564.27-3.096 1.345-5.886 3.252-8.33C5.978 2.842 9.464.784 13.756.168c3.086-.443 6.066-.01 8.911 1.287.077.035.153.073.227.113.016.008.024.03.044.057-.402 0-.802-.045-1.188.01-1.183.165-1.888.909-2.269 1.999-.075.217-.12.448-.153.676-.013.083.043.177.067.266.102-.05.242-.073.297-.153.148-.217.237-.475.39-.687.772-1.081 2.288-1.209 3.169-.26.6.646.68 1.424.492 2.252-.24 1.062-.823 1.942-1.511 2.752-.553.653-1.153 1.266-1.744 1.885-.064.067-.24.113-.31.074-1.25-.713-2.59-1.03-4.025-1.063-1.939-.044-3.706.403-5.206 1.676-1.54 1.307-2.409 2.962-2.385 5.005.027 2.388 1.068 4.217 3.155 5.42l.19.111c.008.005.011.018.036.062-.074.068-.158.14-.237.216-.65.635-1.33 1.241-1.938 1.914-.513.57-.862 1.249-.912 2.046-.033.519.125.972.503 1.314.405.366.85.689 1.305 1.053zm14.696.78c-.33-1.213-1.086-2.043-2.152-2.606-.828-.439-1.735-.6-2.654-.656-1.517-.09-3.037-.124-4.555-.207-1.073-.06-2.144-.161-3.216-.244a.209.209 0 0 1-.031-.004c-1.093-.23-1.425-.892-.852-1.844.278-.462.686-.851 1.072-1.237.085-.085.331-.053.49-.015 1.795.429 3.59.451 5.337-.166 2.141-.757 3.613-2.21 4.15-4.46.364-1.526.172-3.02-.547-4.43l-.15-.301h1.328c.37 0 .74.009 1.11-.007.097-.004.252-.06.278-.13.306-.83.591-1.667.882-2.503l-.07-.097c-.124.052-.298.07-.362.162-.337.483-.822.664-1.368.674-1.046.022-2.093.007-3.14.006-.016 0-.032-.02-.06-.038.685-.735 1.369-1.466 2.049-2.2.743-.802 1.431-1.644 1.903-2.64.555-1.175.669-2.33-.214-3.42-.01-.012-.005-.038-.015-.141 4.254 2.889 6.789 6.785 7.332 11.864a15.803 15.803 0 0 1-6.545 14.64zm-5.794-12.317c-.118.758-.172 1.532-.369 2.268-.343 1.29-1.186 2.156-2.525 2.378-1.411.236-2.546-.286-3.36-1.48-.633-.932-.947-1.979-1.08-3.079-.139-1.156-.16-2.317.112-3.463.286-1.211.92-2.161 2.118-2.623 1.459-.564 2.979.004 3.888 1.411.615.951.932 2.005 1.05 3.121.052.482.071.968.105 1.452l.061.015zm4.143 13.352c-2.936 2.2-10.477 2.7-13.523.883.137-.275.246-.575.422-.83.36-.52.747-1.023 1.147-1.514.076-.094.267-.144.4-.135 1.526.1 3.05.229 4.577.322 1.37.083 2.743.106 4.112.204.616.044 1.23.177 1.834.321.423.1.8.324 1.031.749z"/></svg>
